X: 302
T:Te Deum
N: Derived from Jos2615-Te_Deum.krn
C: Josquin des Prez
%%abc-version 2.0
%%abcx-abcm2ps-target-version 5.9.1 (29 Sep 2008)
%%abc-creator hum2abc beta
%%abcx-conversion-date 2019/02/12 16:15:53
%%abc-edited-by Jesse Rodin
%%abc-edited-by Jesse Rodin 8-26-2012
%%abcx-initial-encoding-date 2012/08/26/
%%humdrum-veritas 3117310377
%%humdrum-veritas-data 2219484377
%%linebreak <none>
%%barnumbers 0
L: 1/4
M: 2/1
Q: 1/2=120
%%staves [1 2 3 4]
V: 1 clef=treble
V: 2 clef=treble-8
V: 3 clef=treble-8
V: 4 clef=bass
K: C
[V:1] z8 | 
[V:2] c3cc4 | 
[V:3] z8 | 
[V:4] z8 | 
[V:1] z8 | 
[V:2] B2A2B4 | 
[V:3] z8 | 
[V:4] z8 | 
[V:1] z8 | 
[V:2] A2c4BA | 
[V:3] c3cc4 | 
[V:4] z8 | 
[V:1] z8 | 
[V:2] G2A4^G2 | 
[V:3] B2A2B4 | 
[V:4] z8 | 
[V:1] c3cc4 | 
[V:2] A4e4 | 
[V:3] A2c4BA | 
[V:4] z8 | 
[V:1] B2A2B4 | 
[V:2] e4e4 | 
[V:3] G2A4^G2 | 
[V:4] z8 | 
[V:1] A8- | 
[V:2] f4z2F2- | 
[V:3] A4z2c2- | 
[V:4] F,4F,4- | 
[V:1] A8 | 
[V:2] FGABc2BA | 
[V:3] c2c2A3B | 
[V:4] F,4F,4 | 
[V:1] z4G4 | 
[V:2] G2A4G2 | 
[V:3] c2d4c2 | 
[V:4] E,2D,2E,4 | 
[V:1] F2A4GF | 
[V:2] A4z2c2- | 
[V:3] d4z4 | 
[V:4] D,2F,4E,D, | 
[V:1] E2D2E4 | 
[V:2] cBA2G4 | 
[V:3] z4z2c2 | 
[V:4] C,2D,4C,2 | 
[V:1] D2F4ED | 
[V:2] F6G2 | 
[V:3] B2A4GF | 
[V:4] D,8 | 
[V:1] C8 | 
[V:2] A8- | 
[V:3] E4e4- | 
[V:4] A,,8- | 
[V:1] C4c4- | 
[V:2] A4z2c2- | 
[V:3] e2e2e4 | 
[V:4] A,,8 | 
[V:1] c4B4- | 
[V:2] c2BAB2G2 | 
[V:3] c4d4- | 
[V:4] A,4G,4- | 
[V:1] B4A4- | 
[V:2] B2c4d2 | 
[V:3] d2c2A4 | 
[V:4] G,2C,2F,4 | 
[V:1] A4^G4 | 
[V:2] e4e4 | 
[V:3] B8 | 
[V:4] E,8 | 
[V:1] A8 | 
[V:2] c4f4 | 
[V:3] A8 | 
[V:4] A,,4D,4 | 
[V:1] z8 | 
[V:2] e4d2e2- | 
[V:3] E3FG2E2- | 
[V:4] C,4B,,2C,2- | 
[V:1] z8 | 
[V:2] e2dcd4 | 
[V:3] E2A4^G2 | 
[V:4] C,2B,,A,,B,,4 | 
[V:1] E3FG2E2- | 
[V:2] c4z2A2 | 
[V:3] A2c2B2c2- | 
[V:4] A,,2A,2G,2A,2- | 
[V:1] E2A4^G2 | 
[V:2] c2d2e4 | 
[V:3] c2BAB4 | 
[V:4] A,2F,2E,4 | 
[V:1] A4d3c | 
[V:2] c2A2B3c | 
[V:3] A4G3A | 
[V:4] A,,2D,2G,,4 | 
[V:1] BAB4AG | 
[V:2] d2B4e2- | 
[V:3] Bcd3cB2- | 
[V:4] z2G,4F,E, | 
[V:1] A4G4 | 
[V:2] e2d2e4 | 
[V:3] B2A2B4 | 
[V:4] F,4E,4 | 
[V:1] z2A2B2d2- | 
[V:2] c3de2f2 | 
[V:3] A4z2A2 | 
[V:4] F,4E,2D,2 | 
[V:1] dcBAB2A2- | 
[V:2] d4d4 | 
[V:3] B2d3cBA | 
[V:4] G,6D,2 | 
[V:1] A2G4^F2 | 
[V:2] z4z2d2 | 
[V:3] c2B2A4 | 
[V:4] F,2G,2D,4 | 
[V:1] G8- | 
[V:2] e2g3fed | 
[V:3] G8- | 
[V:4] z2E,3D,C,B,, | 
[V:1] G8- | 
[V:2] e2d3Gc2- | 
[V:3] G8- | 
[V:4] C,2B,,2C,4 | 
[V:1] G8- | 
[V:2] c2B2c4 | 
[V:3] G8- | 
[V:4] G,,4C,4 | 
[V:1] G8- | 
[V:2] d2e4d2- | 
[V:3] G8- | 
[V:4] B,,2C,4B,,2 | 
[V:1] G8 ||  
[V:2] d2c2d4 ||  
[V:3] G8 ||  
[V:4] C,4G,,4 ||  
[V:1]  [K:C] [K:clef=treble][M:2/1]c3cc2c2 | 
[V:2]  [K:C] [K:clef=treble-8][M:2/1]A3Bcde2 | 
[V:3]  [K:C] [K:clef=treble-8][M:2/1]z8 | 
[V:4]  [K:C] [K:clef=bass][M:2/1]z8 | 
[V:1] c4B2c2- | 
[V:2] A2e2d2e2- | 
[V:3] z8 | 
[V:4] z8 | 
[V:1] c2BAG2A2 | 
[V:2] e2dcB2d2- | 
[V:3] z8 | 
[V:4] z8 | 
[V:1] B2A4^G2 | 
[V:2] dcA2B4 | 
[V:3] z8 | 
[V:4] z8 | 
[V:1] A8- | 
[V:2] A8- | 
[V:3] ABcde2f2 | 
[V:4] A,,3B,,C,2D,2 | 
[V:1] A8 | 
[V:2] A8 | 
[V:3] e2f4ed | 
[V:4] C,2D,4C,B,, | 
[V:1] z8 | 
[V:2] z8 | 
[V:3] c2d2e2d2- | 
[V:4] A,,2D,2C,2D,2 | 
[V:1] z8 | 
[V:2] z8 | 
[V:3] d2^c2d4 | 
[V:4] E,4D,4 | 
[V:1] c4c2c2- | 
[V:2] c6BA | 
[V:3] e4e4 | 
[V:4] C,4C,4 | 
[V:1] c2BAc2B2- | 
[V:2] G2g3ag2- | 
[V:3] e4e2d2- | 
[V:4] C,3D,E,F,G,2- | 
[V:1] B2A4^G2 | 
[V:2] gfede4 | 
[V:3] d2c2B4 | 
[V:4] G,2A,2E,4 | 
[V:1] A8- | 
[V:2] c2f4ed | 
[V:3] A8- | 
[V:4] A,,2D,4C,B,, | 
[V:1] A8- | 
[V:2] f2e4d2- | 
[V:3] A8- | 
[V:4] D,2C,2D,4 | 
[V:1] A8 | 
[V:2] d2^c2d4 | 
[V:3] A8 | 
[V:4] A,,4D,4 | 
[V:1] z8 | 
[V:2] e4z4 | 
[V:3] E4G4 | 
[V:4] C,2B,,A,,B,,4 | 
[V:1] z8 | 
[V:2] e3dcBc2- | 
[V:3] A4A4 | 
[V:4] A,,8- | 
[V:1] E8 | 
[V:2] c2BAc3d | 
[V:3] A4A4 | 
[V:4] A,,8 | 
[V:1] G4A4 | 
[V:2] B4A4 | 
[V:3] G4c3d | 
[V:4] E,4F,2E,D, | 
[V:1] A4A4 | 
[V:2] e2d4cB | 
[V:3] e2f4e2- | 
[V:4] C,2D,4E,2 | 
[V:1] A4G4 | 
[V:2] A4B4 | 
[V:3] e2d2e2dc | 
[V:4] F,4E,4 | 
[V:1] z2G2A2c2- | 
[V:2] z2B2c2A2 | 
[V:3] B4A4 | 
[V:4] E,4A,,4 | 
[V:1] c2B2A4 | 
[V:2] G4z4 | 
[V:3] z2G2A2c2- | 
[V:4] E,4F,4 | 
[V:1] G4E4 | 
[V:2] z2G2A2c2- | 
[V:3] c2B2A4 | 
[V:4] E,4z4 | 
[V:1] z8 | 
[V:2] c2B2A4 | 
[V:3] E4F4 | 
[V:4] z2G,2A,2C2- | 
[V:1] z2G2A2c2- | 
[V:2] E4e4- | 
[V:3] G4z4 | 
[V:4] C2B,2A,4 | 
[V:1] c2B2A4 | 
[V:2] e4z4 | 
[V:3] z2G2A2c2- | 
[V:4] E,4F,4 | 
[V:1] G4z2G2 | 
[V:2] e4e2e2- | 
[V:3] c2BAB4 | 
[V:4] E,4E,D,C,B,, | 
[V:1] A4B4 | 
[V:2] e2dcB2d2- | 
[V:3] c4d4- | 
[V:4] A,,4G,,4- | 
[V:1] B2B4AG | 
[V:2] dcBAGABc | 
[V:3] d2d4cB | 
[V:4] G,,4G,4- | 
[V:1] B2A4G2- | 
[V:2] def4e2 | 
[V:3] d4c2B2 | 
[V:4] G,2D,2F,2G,2 | 
[V:1] G2^F2G4 ||  
[V:2] d4d4 ||  
[V:3] A4G4 ||  
[V:4] D,4G,,4 ||  
[V:1]  [K:C] [K:clef=treble][M:2/1]z8 | 
[V:2]  [K:C] [K:clef=treble-8][M:2/1]E4G4 | 
[V:3]  [K:C] [K:clef=treble-8][M:2/1]z8 | 
[V:4]  [K:C] [K:clef=bass][M:2/1]z8 | 
[V:1] z8 | 
[V:2] A6B2 | 
[V:3] z8 | 
[V:4] z8 | 
[V:1] z8 | 
[V:2] c6BA | 
[V:3] z8 | 
[V:4] A,,8 | 
[V:1] E8 | 
[V:2] G4c4 | 
[V:3] z8 | 
[V:4] C,8 | 
[V:1] F8 | 
[V:2] B2A4GF | 
[V:3] z8 | 
[V:4] D,8 | 
[V:1] G8- | 
[V:2] EFGAB2c2 | 
[V:3] z8 | 
[V:4] E,8- | 
[V:1] G8- | 
[V:2] B2E2G3A | 
[V:3] z8 | 
[V:4] E,8- | 
[V:1] G8- | 
[V:2] B2c2B2E2- | 
[V:3] z8 | 
[V:4] E,8- | 
[V:1] G8 | 
[V:2] EFGAB2c2 | 
[V:3] z8 | 
[V:4] E,8 | 
[V:1] A8- | 
[V:2] A4z2c2- | 
[V:3] z8 | 
[V:4] F,8- | 
[V:1] A8 | 
[V:2] c2BAc2d2 | 
[V:3] z8 | 
[V:4] F,8 | 
[V:1] G8- | 
[V:2] e4EFGA | 
[V:3] EFGAB2c2 | 
[V:4] E,8- | 
[V:1] G8- | 
[V:2] B2c2B2E2- | 
[V:3] B2E2G3A | 
[V:4] E,8- | 
[V:1] G8- | 
[V:2] EFGAB2c2 | 
[V:3] B2c2B2E2- | 
[V:4] E,8- | 
[V:1] G8 | 
[V:2] B4E4 | 
[V:3] EFGAB2E2 | 
[V:4] E,8 | 
[V:1] E8- | 
[V:2] z2c4BA | 
[V:3] A3Bcde2- | 
[V:4] A,,8 | 
[V:1] E8- | 
[V:2] G4G4 | 
[V:3] e2dcB4 | 
[V:4] E,8 | 
[V:1] E8- | 
[V:2] A6GF | 
[V:3] A8- | 
[V:4] A,,8- | 
[V:1] E8- | 
[V:2] E2A4GF | 
[V:3] A8- | 
[V:4] A,,8- | 
[V:1] E8 ||  
[V:2] E8 ||  
[V:3] A8 ||  
[V:4] A,,8 ||  
[V:1]  [K:C] [K:clef=treble][M:2/1]c4c2c2- | 
[V:2]  [K:C] [K:clef=treble-8][M:2/1]z8 | 
[V:3]  [K:C] [K:clef=treble-8][M:2/1]z4c4 | 
[V:4]  [K:C] [K:clef=bass][M:2/1]z8 | 
[V:1] c2BAc4 | 
[V:2] z4f4 | 
[V:3] c2c4BA | 
[V:4] F,4F,2F,2- | 
[V:1] A8- | 
[V:2] f2f4ed | 
[V:3] c4A4- | 
[V:4] F,2E,D,F,4 | 
[V:1] A8- | 
[V:2] f4d3e | 
[V:3] A4A4 | 
[V:4] D,8 | 
[V:1] A8 | 
[V:2] fgf4e2- | 
[V:3] A8- | 
[V:4] D,6C,2 | 
[V:1] z4A4 | 
[V:2] e2d2e4- | 
[V:3] A8 | 
[V:4] D,4A,,4 | 
[V:1] c6B2 | 
[V:2] e4e4 | 
[V:3] z8 | 
[V:4] A,6G,2 | 
[V:1] A4G4 | 
[V:2] e8 | 
[V:3] z2c4B2 | 
[V:4] A,4E,4 | 
[V:1] c4A2B2- | 
[V:2] z8 | 
[V:3] c4d4 | 
[V:4] A,4F,2G,2- | 
[V:1] BA^G^FG4 | 
[V:2] z4e4 | 
[V:3] B8 | 
[V:4] G,F,E,D,E,4 | 
[V:1] A8 | 
[V:2] e2e4dc | 
[V:3] A8 | 
[V:4] A,,4z2A,,2- | 
[V:1] z8 | 
[V:2] e4d4 | 
[V:3] E4G4 | 
[V:4] A,,B,,C,2B,,4 | 
[V:1] E4G4 | 
[V:2] c2BAB4 | 
[V:3] A4G4 | 
[V:4] A,,4E,2G,2- | 
[V:1] A4G4 | 
[V:2] A4B2d2- | 
[V:3] c4B4 | 
[V:4] G,2F,2G,2B,2 | 
[V:1] c4B3A | 
[V:2] d2c2d2G2 | 
[V:3] e4z4 | 
[V:4] A,4G,3F, | 
[V:1] GFE4A2- | 
[V:2] c3de2f2 | 
[V:3] z2e4dc | 
[V:4] E,D,C,4D,2 | 
[V:1] A2^G2A4 | 
[V:2] e4z2A2 | 
[V:3] B4A2c2- | 
[V:4] E,4A,,4 | 
[V:1] z4z2A2- | 
[V:2] A2G2A2c2- | 
[V:3] c2B2A4 | 
[V:4] E,4F,4 | 
[V:1] A2G2A2c2- | 
[V:2] c2B2A4 | 
[V:3] E4z2A2- | 
[V:4] E,4A,,4 | 
[V:1] c2B2A4 | 
[V:2] E4F4 | 
[V:3] A2G2A2c2- | 
[V:4] z4z2A,2- | 
[V:1] E4E4 | 
[V:2] E4z2A2- | 
[V:3] c2B2A4 | 
[V:4] A,2G,2A,2C2- | 
[V:1] z4z2A2- | 
[V:2] A2G2A2c2- | 
[V:3] E4F4 | 
[V:4] C2B,2A,4 | 
[V:1] A2G2A2c2- | 
[V:2] c2B2A4 | 
[V:3] E4z2A2- | 
[V:4] E,4A,,4 | 
[V:1] c2B2A4 | 
[V:2] E4F4 | 
[V:3] A2G2A2c2- | 
[V:4] z4z2A,2- | 
[V:1] E4E4 | 
[V:2] E4z2A2- | 
[V:3] c2B2A4 | 
[V:4] A,2G,2A,2C2- | 
[V:1] z4z2A2- | 
[V:2] A2G2A2c2- | 
[V:3] E4F4 | 
[V:4] C2B,2A,4 | 
[V:1] A2G2A2c2- | 
[V:2] c2B2c2e2 | 
[V:3] E4z2A2- | 
[V:4] E,4A,,4 | 
[V:1] c2B2c4 | 
[V:2] d4c4 | 
[V:3] A2G2A2c2- | 
[V:4] z4z2A,2 | 
[V:1] d3cB2A2- | 
[V:2] z4z2d2- | 
[V:3] c2B2d3c | 
[V:4] G,6D,2 | 
[V:1] A2G4^F2 | 
[V:2] d2c2d4 | 
[V:3] B2G2A4 | 
[V:4] E,4D,4 | 
[V:1] G8- | 
[V:2] z2d2e2d2 | 
[V:3] G8- | 
[V:4] G,,4z4 | 
[V:1] G8- | 
[V:2] g3fe2d2- | 
[V:3] G8- | 
[V:4] z2C,4B,,2 | 
[V:1] G8- | 
[V:2] d2c4B2 | 
[V:3] G8- | 
[V:4] C,4G,,4 | 
[V:1] G8- | 
[V:2] c4B2c2 | 
[V:3] G8- | 
[V:4] C,3D,E,2C,2 | 
[V:1] G8- | 
[V:2] d4e4 | 
[V:3] G8- | 
[V:4] G,4C,4 | 
[V:1] G8- | 
[V:2] d8- | 
[V:3] G8- | 
[V:4] G,6G,,2 | 
[V:1] G8 ||  
[V:2] d8 ||  
[V:3] G8 ||  
[V:4] G,,8 ||  
[V:1]  [K:C] [K:clef=treble][M:2/1]c4c4 | 
[V:2]  [K:C] [K:clef=treble-8][M:2/1]A4A2A2- | 
[V:3]  [K:C] [K:clef=treble-8][M:2/1]z8 | 
[V:4]  [K:C] [K:clef=bass][M:2/1]z8 | 
[V:1] c4B2A2 | 
[V:2] ABcde2f2 | 
[V:3] z8 | 
[V:4] z8 | 
[V:1] B4A4- | 
[V:2] g3fede2- | 
[V:3] z4A4 | 
[V:4] z4A,,4 | 
[V:1] A8 | 
[V:2] edcBc4 | 
[V:3] ABcde4- | 
[V:4] A,,2A,,3B,,C,D, | 
[V:1] z8 | 
[V:2] B4z2B2- | 
[V:3] e4f2e2- | 
[V:4] E,4D,2G,2- | 
[V:1] z4D4 | 
[V:2] BAG4F2 | 
[V:3] edc4B2 | 
[V:4] G,2F,E,D,4 | 
[V:1] E3FGAG2- | 
[V:2] G8 | 
[V:3] c4z2c2- | 
[V:4] C,8- | 
[V:1] G2F4E2 | 
[V:2] z4c4 | 
[V:3] cBA2G4 | 
[V:4] C,8 | 
[V:1] F8 | 
[V:2] A2c3BAG | 
[V:3] F2A3GFE | 
[V:4] F,,4z2F,,2 | 
[V:1] z4z2C2- | 
[V:2] F2E2C4 | 
[V:3] D2G4F2 | 
[V:4] F,,2G,,2A,,4 | 
[V:1] C2B,2C4 | 
[V:2] D4C4 | 
[V:3] G6FE | 
[V:4] G,,4z2G,2- | 
[V:1] z2F4E2 | 
[V:2] z8 | 
[V:3] D4C4 | 
[V:4] G,2F,2G,4 | 
[V:1] F4E2G2- | 
[V:2] z2c4B2 | 
[V:3] D4C4 | 
[V:4] z4G,4 | 
[V:1] G2FED4 | 
[V:2] c4g4 | 
[V:3] z2c4B2 | 
[V:4] E,2F,2G,4 | 
[V:1] C2c2BAA2- | 
[V:2] e4f4 | 
[V:3] c4d4 | 
[V:4] A,4D,4 | 
[V:1] A2^G^FG4 | 
[V:2] e8 | 
[V:3] B8 | 
[V:4] E,8 | 
[V:1] A8 | 
[V:2] c4z2A2 | 
[V:3] A6c2- | 
[V:4] A,,4A,,4 | 
[V:1] z4z2A2 | 
[V:2] A2G2A2c2- | 
[V:3] c2B2A4 | 
[V:4] E,4F,4 | 
[V:1] A2G2A2c2- | 
[V:2] c2B2A2GF | 
[V:3] E4z2A2 | 
[V:4] E,4A,,4 | 
[V:1] c2B2A2GF | 
[V:2] E4e4- | 
[V:3] A2G2A2c2- | 
[V:4] z4z2A,2 | 
[V:1] E4z2A2 | 
[V:2] e8- | 
[V:3] c2B2A2GF | 
[V:4] A,2G,2A,2C2- | 
[V:1] A2G2A2c2- | 
[V:2] e4z4 | 
[V:3] E4z2A2 | 
[V:4] C2B,2A,2G,F, | 
[V:1] c2B2A2GF | 
[V:2] z8 | 
[V:3] A2G2A2B2 | 
[V:4] E,4F,2E,D, | 
[V:1] E4A4 | 
[V:2] z2e2e2d2 | 
[V:3] c4z2A2 | 
[V:4] C,4F,4 | 
[V:1] G4z4 | 
[V:2] e2g4f2 | 
[V:3] B2G2A3B | 
[V:4] E,4D,4 | 
[V:1] z2G4c2- | 
[V:2] e2dcB2c2 | 
[V:3] c4z2e2 | 
[V:4] C,3D,E,2C,2 | 
[V:1] c2B2c2c2 | 
[V:2] G4z4 | 
[V:3] d4c4 | 
[V:4] G,4C,4 | 
[V:1] B3AGFA2- | 
[V:2] g4e2f2- | 
[V:3] d2e4c2 | 
[V:4] G,4C,2F,2- | 
[V:1] A2G4^F2 | 
[V:2] f2e2d4 | 
[V:3] d2B2A3B | 
[V:4] F,D,G,2D,4 | 
[V:1] G8- | 
[V:2] e3dcBd2- | 
[V:3] c4G4- | 
[V:4] C,6B,,2 | 
[V:1] G8- | 
[V:2] d2c4B2 | 
[V:3] G8- | 
[V:4] C,4G,4 | 
[V:1] G8 ||  
[V:2] c8 ||  
[V:3] G8 ||  
[V:4] C,8 ||  
[V:1]  [K:C] [K:clef=treble][M:2/1]z8 | 
[V:2]  [K:C] [K:clef=treble-8][M:2/1]z8 | 
[V:3]  [K:C] [K:clef=treble-8][M:2/1]c4c4 | 
[V:4]  [K:C] [K:clef=bass][M:2/1]A,,3B,,C,D,E,2 | 
[V:1] z8 | 
[V:2] z8 | 
[V:3] c8 | 
[V:4] A,,2C,4B,,A,, | 
[V:1] z8 | 
[V:2] z8 | 
[V:3] B2A2B4 | 
[V:4] G,,2A,,4^G,,2 | 
[V:1] c4c4 | 
[V:2] e6e2 | 
[V:3] A3Bcde2 | 
[V:4] A,,4z4 | 
[V:1] c8 | 
[V:2] e4e4 | 
[V:3] A2c4BA | 
[V:4] z2A,,3B,,C,D, | 
[V:1] B2A2B4 | 
[V:2] e8 | 
[V:3] G2A4^G2 | 
[V:4] E,2A,,2E,4 | 
[V:1] A2c4BA | 
[V:2] c4d4 | 
[V:3] A8 | 
[V:4] F,8 | 
[V:1] G2A4^G2 | 
[V:2] e8 | 
[V:3] B4E4 | 
[V:4] E,4z2E,2 | 
[V:1] A4z4 | 
[V:2] z4z2E2 | 
[V:3] A2c2B4 | 
[V:4] F,2A,4G,2 | 
[V:1] z4z2E2 | 
[V:2] F2A4G2 | 
[V:3] A4z4 | 
[V:4] A,4E,4 | 
[V:1] F2A4G2 | 
[V:2] A2c2B4 | 
[V:3] z4z2E2 | 
[V:4] A,,4E,4 | 
[V:1] A2c2B4 | 
[V:2] A4E4 | 
[V:3] F2A4G2 | 
[V:4] A,,4z2E,2 | 
[V:1] A4z4 | 
[V:2] z4z2E2 | 
[V:3] A2c2B4 | 
[V:4] F,2A,4G,2 | 
[V:1] z4z2E2 | 
[V:2] F2A4G2 | 
[V:3] A4z4 | 
[V:4] A,4E,4 | 
[V:1] F2A4G2 | 
[V:2] A2c2B4 | 
[V:3] z4z2E2 | 
[V:4] A,,4E,4 | 
[V:1] A2c2B4 | 
[V:2] A4E4 | 
[V:3] F2A4G2 | 
[V:4] A,,4z2E,2 | 
[V:1] A4z4 | 
[V:2] z4z2E2 | 
[V:3] A2c2B4 | 
[V:4] F,2A,4G,2 | 
[V:1] z8 | 
[V:2] F2A4G2 | 
[V:3] A4z4 | 
[V:4] A,2C4B,2 | 
[V:1] z4z2G2 | 
[V:2] A2c4B2 | 
[V:3] z8 | 
[V:4] C4G,4 | 
[V:1] A2c4B2 | 
[V:2] c4G4 | 
[V:3] z4E2G2 | 
[V:4] F,2A,2E,4 | 
[V:1] c4G4 | 
[V:2] A4E4 | 
[V:3] A2c4B2 | 
[V:4] A,,4E,4 | 
[V:1] A4E4 | 
[V:2] e8- | 
[V:3] c4G2c2- | 
[V:4] A,,3B,,C,3D, | 
[V:1] G4A4 | 
[V:2] e4c4 | 
[V:3] c2B2A4 | 
[V:4] E,4F,4 | 
[V:1] F4G2A2- | 
[V:2] f4e2A2 | 
[V:3] d3cB2A2 | 
[V:4] D,4E,2F,2 | 
[V:1] A2G4^F2 | 
[V:2] d2e2d4- | 
[V:3] B2c2A4 | 
[V:4] G,2C,2D,4 | 
[V:1] G4A2B2 | 
[V:2] d2e3dB2 | 
[V:3] G3EF2G2- | 
[V:4] B,,2C,2A,,2G,,2 | 
[V:1] c2c2B4 ||  
[V:2] d8 ||  
[V:3] G2^F2G4 ||  
[V:4] A,,4G,,4 ||  
[V:1]  [K:C] [K:clef=treble][M:3/1]c8c4 | 
[V:2]  [K:C] [K:clef=treble-8][M:3/1]e8e4 | 
[V:3]  [K:C] [K:clef=treble-8][M:3/1]c8c4 | 
[V:4]  [K:C] [K:clef=bass][M:3/1]A,,8A,,4 | 
[V:1] c4A4G4 | 
[V:2] e4e4e4 | 
[V:3] c4c4B4 | 
[V:4] A,,4A,,4E,4 | 
[V:1] A8^G4 | 
[V:2] d4e8 | 
[V:3] A4B8 | 
[V:4] F,4E,8 | 
[V:1] A8z4 | 
[V:2] e8z4 | 
[V:3] A8z4 | 
[V:4] A,,8z4 | 
[V:1] F4F4F4 | 
[V:2] d4d4d4 | 
[V:3] A4A4A4 | 
[V:4] D,4D,4D,4 | 
[V:1] D6E2F4 | 
[V:2] B6c2d4 | 
[V:3] G8A4 | 
[V:4] G,,8D,4 | 
[V:1] E6F2G4 | 
[V:2] G8G4 | 
[V:3] c8B4 | 
[V:4] C,6D,2E,4 | 
[V:1] [M:2/1]A6GF | 
[V:2] [M:3/3](3:2:2c8c4 | 
[V:3] [M:3/3](3:2:2A8A4 | 
[V:4] [M:3/3](3:2:2F,8F,4 | 
[V:1] E8 ||  
[V:2] (3:2:1c12 ||  
[V:3] (3:2:1G12 ||  
[V:4] (3:2:1C,12 ||  
[V:1]  [K:C] [K:clef=treble][M:2/1]z8 | 
[V:2]  [K:C] [K:clef=treble-8][M:2/1]A4A2c2- | 
[V:3]  [K:C] [K:clef=treble-8][M:2/1]z8 | 
[V:4]  [K:C] [K:clef=bass][M:2/1]A,,4A,,4 | 
[V:1] z8 | 
[V:2] c2BABAGF | 
[V:3] z8 | 
[V:4] A,,4G,,4 | 
[V:1] z8 | 
[V:2] E6F2- | 
[V:3] A4A4 | 
[V:4] A,,3B,,C,2D,2- | 
[V:1] z8 | 
[V:2] F2E4D2 | 
[V:3] A4G4 | 
[V:4] D,2C,2B,,4 | 
[V:1] A4A4 | 
[V:2] E4z2e2- | 
[V:3] A4A2c2- | 
[V:4] A,,8 | 
[V:1] A4G4 | 
[V:2] e2dcd4 | 
[V:3] c2BAB4 | 
[V:4] z8 | 
[V:1] A4A2c2- | 
[V:2] e4f4 | 
[V:3] A4z2A2 | 
[V:4] z8 | 
[V:1] c2BABAGF | 
[V:2] e4e3d | 
[V:3] A2A2E3F | 
[V:4] z8 | 
[V:1] E2F4E2- | 
[V:2] B2c4B2- | 
[V:3] G2A4G2 | 
[V:4] z8 | 
[V:1] E2D2E4 | 
[V:2] B2A2B3E | 
[V:3] F4E4 | 
[V:4] z8 | 
[V:1] z2B4A2 | 
[V:2] e4e2f2- | 
[V:3] z8 | 
[V:4] E,3F,G,2A,2- | 
[V:1] B2c4BA | 
[V:2] f2e4d2 | 
[V:3] z2B4A2 | 
[V:4] A,2G,2F,4 | 
[V:1] G8- | 
[V:2] e8- | 
[V:3] B4c2BA | 
[V:4] E,8- | 
[V:1] G8 ||  
[V:2] e8 ||  
[V:3] G3AB4 ||  
[V:4] E,8 ||  
[V:1]  [K:C] [K:clef=treble][M:2/1]z8 | 
[V:2]  [K:C] [K:clef=treble-8][M:2/1]B4B4 | 
[V:3]  [K:C] [K:clef=treble-8][M:2/1]z8 | 
[V:4]  [K:C] [K:clef=bass][M:2/1]E,6E,2 | 
[V:1] z8 | 
[V:2] B6B2 | 
[V:3] z8 | 
[V:4] E,4E,4 | 
[V:1] A4A4 | 
[V:2] A3Bcdc2- | 
[V:3] z8 | 
[V:4] F,8- | 
[V:1] A2A2A4 | 
[V:2] c2BAc2d2 | 
[V:3] z8 | 
[V:4] F,8 | 
[V:1] G3ABcB2- | 
[V:2] e3fgag2- | 
[V:3] B6B2 | 
[V:4] E,8- | 
[V:1] B2A4^G2 | 
[V:2] gfede4 | 
[V:3] B4B4 | 
[V:4] E,8 | 
[V:1] A8 | 
[V:2] e8 | 
[V:3] c8 | 
[V:4] A,,4z2A,,2- | 
[V:1] D8 | 
[V:2] z8 | 
[V:3] B8 | 
[V:4] A,,2G,,F,,G,,4 | 
[V:1] C3DEFE2- | 
[V:2] e3dcBc2- | 
[V:3] E8 | 
[V:4] A,,8- | 
[V:1] E2D4^C2 | 
[V:2] cBAGA4- | 
[V:3] E8 | 
[V:4] A,,8 | 
[V:1] D8 | 
[V:2] A2GFG4 | 
[V:3] D8 | 
[V:4] _B,,8 | 
[V:1] C4z2E2- | 
[V:2] A4G3E | 
[V:3] E8 | 
[V:4] A,,4C,4 | 
[V:1] E2DCD4 | 
[V:2] A4z2A2 | 
[V:3] F8 | 
[V:4] D,8 | 
[V:1] E8 | 
[V:2] c3dcBAG | 
[V:3] E4E4 | 
[V:4] A,,4z2E,2- | 
[V:1] z8 | 
[V:2] A4G4 | 
[V:3] z4z2B2- | 
[V:4] E,2D,2E,4 | 
[V:1] z2A4G2 | 
[V:2] z8 | 
[V:3] B2A2B4 | 
[V:4] F,4E,4 | 
[V:1] A4B4 | 
[V:2] z2A4G2 | 
[V:3] c4B4 | 
[V:4] A,,4z4 | 
[V:1] A4D4 | 
[V:2] A4B4 | 
[V:3] E4z4 | 
[V:4] z2A,,4G,,2 | 
[V:1] z8 | 
[V:2] c2A4^G2 | 
[V:3] z2E4D2 | 
[V:4] A,,4B,,4 | 
[V:1] z2E4D2 | 
[V:2] A4z2A2 | 
[V:3] E4F4 | 
[V:4] A,,4z4 | 
[V:1] E4F4 | 
[V:2] B2c2A4 | 
[V:3] E4z4 | 
[V:4] z2E,4D,2 | 
[V:1] E4z2A2- | 
[V:2] G4c2d2 | 
[V:3] z2B4A2 | 
[V:4] E,4F,4 | 
[V:1] A2G2c4 | 
[V:2] e4e4 | 
[V:3] B4E3F | 
[V:4] E,4C,4 | 
[V:1] d2c2B4 | 
[V:2] z2c2d4 | 
[V:3] G2A4G2 | 
[V:4] B,,2A,,2B,,4 | 
[V:1] E3FG2A2- | 
[V:2] c2e4d2 | 
[V:3] A2c2B2A2 | 
[V:4] A,,4E,2F,2 | 
[V:1] A2^G2A4 | 
[V:2] e4z4 | 
[V:3] B4z2A2- | 
[V:4] E,4A,,4 | 
[V:1] z4z2A2- | 
[V:2] e8 | 
[V:3] A2G2A4 | 
[V:4] E,4A,,4 | 
[V:1] A2G2A4 | 
[V:2] e4e4 | 
[V:3] B4A4 | 
[V:4] E,4A,,4 | 
[V:1] B4A4 | 
[V:2] z2e4d2 | 
[V:3] G2E2F4 | 
[V:4] E,4z4 | 
[V:1] G4A4 | 
[V:2] e4f4 | 
[V:3] E4z4 | 
[V:4] z2E,4D,2 | 
[V:1] G6FE | 
[V:2] e4d4- | 
[V:3] B8 | 
[V:4] E,4G,4- | 
[V:1] D4E4- | 
[V:2] d2B2c4 | 
[V:3] B4E2G2- | 
[V:4] G,4C,4 | 
[V:1] E4D4 | 
[V:2] A8 | 
[V:3] G2FEF4 | 
[V:4] D,8 | 
[V:1] E8 ||  
[V:2] A8 ||  
[V:3] E8 ||  
[V:4] A,,8 ||  
[V:1]  [K:C] [K:clef=treble][M:2/1]z8 | 
[V:2]  [K:C] [K:clef=treble-8][M:2/1]e4e4 | 
[V:3]  [K:C] [K:clef=treble-8][M:2/1]z8 | 
[V:4]  [K:C] [K:clef=bass][M:2/1]C,6C,2 | 
[V:1] z8 | 
[V:2] e6e2 | 
[V:3] z8 | 
[V:4] C,4C,4 | 
[V:1] z8 | 
[V:2] d6cB | 
[V:3] z8 | 
[V:4] G,8 | 
[V:1] A6A2 | 
[V:2] A4A2c2- | 
[V:3] c6c2 | 
[V:4] F,8- | 
[V:1] A6GF | 
[V:2] cBAGF4 | 
[V:3] c4c4 | 
[V:4] F,6E,D, | 
[V:1] E3FGAB2- | 
[V:2] G4z4 | 
[V:3] c6BA | 
[V:4] C,4z2G,2- | 
[V:1] B2A4^G2 | 
[V:2] c2d2e4 | 
[V:3] G2A2B4 | 
[V:4] G,2F,2E,4 | 
[V:1] A4z4 | 
[V:2] e4z4 | 
[V:3] A4z4 | 
[V:4] A,,4z4 | 
[V:1] [M:3/1]A4A4A4 | 
[V:2] [M:3/1]A4A4A4 | 
[V:3] [M:3/1]c4c4c4 | 
[V:4] [M:3/1]F,4F,4F,4 | 
[V:1] G8c4 | 
[V:2] e6d2c2A2 | 
[V:3] c8e4 | 
[V:4] C,8C,4 | 
[V:1] B6A2G2F2 | 
[V:2] B8z4 | 
[V:3] d6A2B4 | 
[V:4] G,6F,2E,2D,2 | 
[V:1] E4F6E2 | 
[V:2] e4d6B2 | 
[V:3] c4A8 | 
[V:4] C,4D,6A,,2 | 
[V:1] E8D4 | 
[V:2] c4A8 | 
[V:3] G4F8 | 
[V:4] C,4D,8 | 
[V:1] E12 ||  
[V:2] A12 ||  
[V:3] E12 ||  
[V:4] A,,12 ||  
[V:1]  [K:C] [K:clef=treble][M:2/1]z8 | 
[V:2]  [K:C] [K:clef=treble-8][M:2/1]A4A2A2 | 
[V:3]  [K:C] [K:clef=treble-8][M:2/1]z8 | 
[V:4]  [K:C] [K:clef=bass][M:2/1]z8 | 
[V:1] A8 | 
[V:2] A3Bc2d2- | 
[V:3] z8 | 
[V:4] z8 | 
[V:1] A4A4 | 
[V:2] dAc3BAG | 
[V:3] z8 | 
[V:4] z8 | 
[V:1] A4A4 | 
[V:2] F2c2d2f2- | 
[V:3] z8 | 
[V:4] z8 | 
[V:1] A8 | 
[V:2] f2ede4 | 
[V:3] A8 | 
[V:4] A,,4A,,2A,,2 | 
[V:1] z4A4 | 
[V:2] d4z2f2- | 
[V:3] A4A4 | 
[V:4] A,,3B,,C,2D,2- | 
[V:1] A4c4 | 
[V:2] fee3dcB | 
[V:3] A4A2c2- | 
[V:4] D,A,,C,3B,,A,,G,, | 
[V:1] c2c3BAG | 
[V:2] A6c2- | 
[V:3] cBAGF4 | 
[V:4] F,,8 | 
[V:1] F3GA4- | 
[V:2] cBAGF4- | 
[V:3] z2F4A2- | 
[V:4] F,,4F,3E, | 
[V:1] A8 | 
[V:2] F2G2A2c2- | 
[V:3] A2G4^F2 | 
[V:4] D,2C,B,,A,,4 | 
[V:1] D4z2G2- | 
[V:2] c2BAB4 | 
[V:3] G8 | 
[V:4] G,,8 | 
[V:1] G2FEF4 | 
[V:2] A4z2d2 | 
[V:3] z8 | 
[V:4] D,8 | 
[V:1] G3ABcB2- | 
[V:2] B2e4dc | 
[V:3] z8 | 
[V:4] E,8- | 
[V:1] B2A4^G2 | 
[V:2] B2c2B4 | 
[V:3] z8 | 
[V:4] E,8 | 
[V:1] A4z2A2 | 
[V:2] A4z4 | 
[V:3] z2c2c4 | 
[V:4] F,6E,D, | 
[V:1] A4c3B | 
[V:2] e8 | 
[V:3] c3Bc2G2 | 
[V:4] C,8 | 
[V:1] c2G2c3B | 
[V:2] e4e4- | 
[V:3] c3Bc2G2 | 
[V:4] C,4C,4- | 
[V:1] c2G2c3B | 
[V:2] e4A2c2- | 
[V:3] c3BA2F2- | 
[V:4] C,4F,,2F,2- | 
[V:1] A2G4F2- | 
[V:2] cAc4B2 | 
[V:3] F2G2A2F2 | 
[V:4] F,2E,2D,4 | 
[V:1] F2E2F4- | 
[V:2] c4z2F2 | 
[V:3] G4F4- | 
[V:4] C,4F,,4- | 
[V:1] F4z4 | 
[V:2] A2B2c4- | 
[V:3] F4z4 | 
[V:4] F,,2G,,2A,,4- | 
[V:1] z8 | 
[V:2] c2BAG4 | 
[V:3] z8 | 
[V:4] A,,2B,,2C,4- | 
[V:1] z8 | 
[V:2] z2A2B2G2 | 
[V:3] z8 | 
[V:4] C,2B,,A,,G,,4 | 
[V:1] z8 | 
[V:2] B2c2d4- | 
[V:3] z8 | 
[V:4] z2A,,2B,,2G,,2 | 
[V:1] z8 | 
[V:2] d2cBA4- | 
[V:3] z8 | 
[V:4] B,,2C,2D,4- | 
[V:1] z8 | 
[V:2] A2B2c3d | 
[V:3] z8 | 
[V:4] D,2C,B,,A,,2C,2- | 
[V:1] z4A4 | 
[V:2] e4A4 | 
[V:3] c3cc2c2 | 
[V:4] C,B,,A,,G,,F,,4 | 
[V:1] A4_B4- | 
[V:2] F4f4- | 
[V:3] c4d4 | 
[V:4] F,4_B,,4- | 
[V:1] B4A4 | 
[V:2] f4f4 | 
[V:3] d4c4 | 
[V:4] B,,4F,4 | 
[V:1] A8- | 
[V:2] f6ed | 
[V:3] c8- | 
[V:4] F,8- | 
[V:1] A8 ||  
[V:2] f8 ||  
[V:3] c8 ||  
[V:4] F,8 ||  
[V:1]  [K:C] [K:clef=treble][M:2/1]z8 | 
[V:2]  [K:C] [K:clef=treble-8][M:2/1]z8 | 
[V:3]  [K:C] [K:clef=treble-8][M:2/1]E3FG2A2- | 
[V:4]  [K:C] [K:clef=bass][M:2/1]C,4B,,2A,,2 | 
[V:1] z4E3F | 
[V:2] z4c4 | 
[V:3] A2^G2A4 | 
[V:4] B,,4A,,4 | 
[V:1] G2A4^G2 | 
[V:2] B2A2B4 | 
[V:3] z8 | 
[V:4] z8 | 
[V:1] A6G2- | 
[V:2] A3Bcde2- | 
[V:3] z8 | 
[V:4] z8 | 
[V:1] GABcd2c2- | 
[V:2] edg4e2 | 
[V:3] z8 | 
[V:4] z8 | 
[V:1] c2B2c4 | 
[V:2] d4c4 | 
[V:3] G4ABcd | 
[V:4] z4z2A,,2 | 
[V:1] z8 | 
[V:2] z8 | 
[V:3] e6d2- | 
[V:4] C,3D,E,F,G,2- | 
[V:1] z8 | 
[V:2] z8 | 
[V:3] d2c3Ae2- | 
[V:4] G,2A,4G,F, | 
[V:1] z8 | 
[V:2] z8 | 
[V:3] e2d4c2- | 
[V:4] G,4E,2F,2 | 
[V:1] z4c4 | 
[V:2] z4e4 | 
[V:3] c2B2c4 | 
[V:4] D,4C,4 | 
[V:1] d2e4dc | 
[V:2] d2c4BA | 
[V:3] z8 | 
[V:4] z8 | 
[V:1] B2c3BA2- | 
[V:2] G2A4c2 | 
[V:3] z8 | 
[V:4] z8 | 
[V:1] A2^G2A4 | 
[V:2] B4A4 | 
[V:3] z4c4 | 
[V:4] z4A,,4 | 
[V:1] z8 | 
[V:2] z8 | 
[V:3] d2e4dc | 
[V:4] B,,2C,4B,,A,, | 
[V:1] z8 | 
[V:2] z8 | 
[V:3] B2c3BA2- | 
[V:4] G,,2A,,4C,2 | 
[V:1] z4z2A2 | 
[V:2] z4e4- | 
[V:3] A2G2A2c2 | 
[V:4] B,,4A,,4 | 
[V:1] A2G2A2c2- | 
[V:2] e8- | 
[V:3] B4z2A2 | 
[V:4] E,4A,,4 | 
[V:1] c2B2A4 | 
[V:2] e8- | 
[V:3] A2G2A2c2 | 
[V:4] E,4A,,4 | 
[V:1] G4E4 | 
[V:2] e4e4 | 
[V:3] B4z2A2 | 
[V:4] E,4A,,4- | 
[V:1] z2E2E2E2 | 
[V:2] c8 | 
[V:3] A2A2c3B | 
[V:4] A,,2A,,2A,,4 | 
[V:1] G3FEDF2- | 
[V:2] B4c4- | 
[V:3] G4A3G | 
[V:4] E,4A,,4 | 
[V:1] F2E4D2 | 
[V:2] c4z2A2 | 
[V:3] E2G2F4 | 
[V:4] C,4D,4 | 
[V:1] E8- | 
[V:2] A2A2c3B | 
[V:3] E8- | 
[V:4] A,,4z2A,,2- | 
[V:1] E8- | 
[V:2] AGB4A2- | 
[V:3] E8- | 
[V:4] A,,2G,,2A,,4- | 
[V:1] E8 ||  
[V:2] A2^G2A4 ||  
[V:3] E8 ||  
[V:4] A,,2E,,2A,,4 ||  
[V:1]  [K:F] [K:clef=treble][M:2/1]C3DEFG2- | 
[V:2]  [K:F] [K:clef=treble-8][M:2/1]z8 | 
[V:3]  [K:F] [K:clef=treble-8][M:2/1]c3=BA2GF | 
[V:4]  [K:F] [K:clef=bass][M:2/1]C,8- | 
[V:1] G2F4E2 | 
[V:2] z8 | 
[V:3] E2F2G4 | 
[V:4] C,8 | 
[V:1] F8- | 
[V:2] F3GABc2- | 
[V:3] F8- | 
[V:4] F,,8- | 
[V:1] F4z4 | 
[V:2] c2B4A2 | 
[V:3] F8- | 
[V:4] F,,8 | 
[V:1] F6F2 | 
[V:2] B4d4- | 
[V:3] F8 | 
[V:4] B,,4B,,2B,,2 | 
[V:1] F4z4 | 
[V:2] d2d2d4 | 
[V:3] B6B2 | 
[V:4] B,,4z4 | 
[V:1] F8 | 
[V:2] z8 | 
[V:3] B4z4 | 
[V:4] z4B,,4 | 
[V:1] F8 | 
[V:2] d4d4 | 
[V:3] z4B4 | 
[V:4] B,,8 | 
[V:1] z4D4 | 
[V:2] d2f3edc | 
[V:3] B8 | 
[V:4] z4B,,4 | 
[V:1] F8 | 
[V:2] d4F4- | 
[V:3] F3GA2B2- | 
[V:4] D,8 | 
[V:1] E8 | 
[V:2] F8 | 
[V:3] B2AGA4 | 
[V:4] C,8 | 
[V:1] D8- | 
[V:2] G8 | 
[V:3] B6AG | 
[V:4] B,,8- | 
[V:1] D8 ||  
[V:2] B8 ||  
[V:3] F8 ||  
[V:4] B,,8 ||  
[V:1]  [K:F] [K:clef=treble][M:2/1]z8 | 
[V:2]  [K:F] [K:clef=treble-8][M:2/1]C4D2F2- | 
[V:3]  [K:F] [K:clef=treble-8][M:2/1]z8 | 
[V:4]  [K:F] [K:clef=bass][M:2/1]z8 | 
[V:1] C4D2F2- | 
[V:2] F2E2F2A2 | 
[V:3] z8 | 
[V:4] z8 | 
[V:1] F2E2F2A2 | 
[V:2] G4F4 | 
[V:3] C4D2F2- | 
[V:4] z8 | 
[V:1] G4F4 | 
[V:2] c4z4 | 
[V:3] F2E2F2A2 | 
[V:4] C,4D,2F,2- | 
[V:1] z2C2D2F2- | 
[V:2] z4z4 | 
[V:3] G4F4 | 
[V:4] F,2E,2F,2A,2 | 
[V:1] F2E2F4 | 
[V:2] c4A4 | 
[V:3] C4c4 | 
[V:4] G,4F,4 | 
[V:1] F4F4 | 
[V:2] B6AG | 
[V:3] d4d4 | 
[V:4] B,,4B,,4 | 
[V:1] D4F4 | 
[V:2] F6A2 | 
[V:3] z2d3cA2 | 
[V:4] B,,3C,D,E,F,2- | 
[V:1] G4A4 | 
[V:2] G4F2f2- | 
[V:3] B4A2c2- | 
[V:4] F,2E,2F,4- | 
[V:1] z2c4B2 | 
[V:2] fec2d4 | 
[V:3] c2BAG4 | 
[V:4] F,4z4 | 
[V:1] A2F2G4 | 
[V:2] c4z4 | 
[V:3] A4B4 | 
[V:4] z2F,4E,2 | 
[V:1] A2F2E4 | 
[V:2] z4z4 | 
[V:3] A2d4c2 | 
[V:4] F,2D,2A,4 | 
[V:1] D2A4^G2 | 
[V:2] f3de4 | 
[V:3] d2A2=B4 | 
[V:4] D,2F,2E,4 | 
[V:1] A4G2F2- | 
[V:2] e6d2- | 
[V:3] A4E2F2- | 
[V:4] A,,3B,,C,2D,2- | 
[V:1] FEC2D4 | 
[V:2] dGA4G2 | 
[V:3] FGE4D2 | 
[V:4] D,E,A,,2B,,4 | 
[V:1] C8 ||  
[V:2] A8 ||  
[V:3] E8 ||  
[V:4] A,,8 ||  
[V:1]  [K:C] [K:clef=treble][M:3/1]z12 | 
[V:2]  [K:C] [K:clef=treble-8][M:3/1]^B8c4- | 
[V:3]  [K:C] [K:clef=treble-8][M:3/1]E6F2G4 | 
[V:4]  [K:C] [K:clef=bass][M:3/1]E,6D,2C,4 | 
[V:1] z12 | 
[V:2] c4d8 | 
[V:3] A8G4 | 
[V:4] A,,4B,,8 | 
[V:1] E6F2G4 | 
[V:2] c4e8 | 
[V:3] A4c4B4 | 
[V:4] A,,8E,4 | 
[V:1] A8^G4 | 
[V:2] d4e8 | 
[V:3] A4B8 | 
[V:4] F,4E,8 | 
[V:1] A6G2E4 | 
[V:2] c6B2A4 | 
[V:3] A4c6B2 | 
[V:4] A,,6B,,2C,4 | 
[V:1] F4D8 | 
[V:2] A4D8 | 
[V:3] A8^G4 | 
[V:4] D,4B,,8 | 
[V:1] C8z4 | 
[V:2] E8z4 | 
[V:3] A8z4 | 
[V:4] A,,8z4 | 
[V:1] c8c4 | 
[V:2] E8E4 | 
[V:3] c8c4 | 
[V:4] A,,8A,,4 | 
[V:1] c4c4c4 | 
[V:2] F6G2A4 | 
[V:3] c4A6B2 | 
[V:4] F,,4F,,4F,,4 | 
[V:1] A8G4 | 
[V:2] A4G4G4 | 
[V:3] c4d4G4 | 
[V:4] F,4D,4E,4 | 
[V:1] E4F8 | 
[V:2] E4F8 | 
[V:3] c8B4 | 
[V:4] C,4D,8 | 
[V:1] E12 ||  
[V:2] G12 ||  
[V:3] c12 ||  
[V:4] C,12 ||  
[V:1]  [K:C] [K:clef=treble][M:2/1]z8 | 
[V:2]  [K:C] [K:clef=treble-8][M:2/1]A3Bcdc2- | 
[V:3]  [K:C] [K:clef=treble-8][M:2/1]z8 | 
[V:4]  [K:C] [K:clef=bass][M:2/1]A,,8 | 
[V:1] z8 | 
[V:2] c2BAc3d | 
[V:3] z8 | 
[V:4] A,,4A,,4 | 
[V:1] z8 | 
[V:2] e4A2c2- | 
[V:3] z8 | 
[V:4] A,,4A,,4 | 
[V:1] z8 | 
[V:2] c2A2BAGF | 
[V:3] z8 | 
[V:4] A,,4G,,4 | 
[V:1] z8 | 
[V:2] E2A4^G2 | 
[V:3] z8 | 
[V:4] A,,2C,2B,,4 | 
[V:1] A8 | 
[V:2] A4z2e2- | 
[V:3] A3Bcdc2- | 
[V:4] A,,8- | 
[V:1] A4A4 | 
[V:2] e2dce4 | 
[V:3] c2BAc3d | 
[V:4] A,,8- | 
[V:1] A4A4 | 
[V:2] A4z2e2- | 
[V:3] e4A2c2- | 
[V:4] A,,8 | 
[V:1] A4G3A | 
[V:2] e2dcd3c | 
[V:3] c2A2BAGF | 
[V:4] z8 | 
[V:1] B2c2B4 | 
[V:2] e4z2e2 | 
[V:3] E2A4^G2 | 
[V:4] z4E,4 | 
[V:1] A4z4 | 
[V:2] c2e4dc | 
[V:3] A4E4 | 
[V:4] A,,2C,4B,,A,, | 
[V:1] z4E4- | 
[V:2] d4c2e2- | 
[V:3] G4A4- | 
[V:4] B,,4A,,3B,, | 
[V:1] E2F2G4 | 
[V:2] e2dcB4 | 
[V:3] A4G4 | 
[V:4] C,2D,2G,,2G,2- | 
[V:1] A8 | 
[V:2] A8 | 
[V:3] c8 | 
[V:4] G,2F,E,F,4 | 
[V:1] G4c4- | 
[V:2] B2G4FE | 
[V:3] B4A4- | 
[V:4] G,4z4 | 
[V:1] c4B4 | 
[V:2] F4G4 | 
[V:3] A4d4 | 
[V:4] z8 | 
[V:1] A6GF | 
[V:2] z8 | 
[V:3] A4A2c2- | 
[V:4] F,6E,D, | 
[V:1] E8 | 
[V:2] z8 | 
[V:3] c2BAG2c2 | 
[V:4] C,8 | 
[V:1] F4A4 | 
[V:2] d8 | 
[V:3] B2A4GF | 
[V:4] D,8 | 
[V:1] G4E4- | 
[V:2] ^B4c4 | 
[V:3] G4z2G2- | 
[V:4] E,4C,4 | 
[V:1] E4D4 | 
[V:2] A8 | 
[V:3] G2FEF4 | 
[V:4] D,8 | 
[V:1] E8 ||  
[V:2] A8 ||  
[V:3] E8 ||  
[V:4] A,,8 ||  
[V:1]  [K:C] [K:clef=treble][M:2/1]A8 | 
[V:2]  [K:C] [K:clef=treble-8][M:2/1]A4A2A2 | 
[V:3]  [K:C] [K:clef=treble-8][M:2/1]z8 | 
[V:4]  [K:C] [K:clef=bass][M:2/1]z8 | 
[V:1] A2A2A2A2 | 
[V:2] A2A2A4 | 
[V:3] z8 | 
[V:4] z8 | 
[V:1] A2A2A4 | 
[V:2] A2c3BAG | 
[V:3] z8 | 
[V:4] z8 | 
[V:1] z2c3BAG | 
[V:2] F2A3GFE | 
[V:3] z8 | 
[V:4] z8 | 
[V:1] F2A3GFE | 
[V:2] D2d4c2 | 
[V:3] z8 | 
[V:4] z8 | 
[V:1] D2A4G2- | 
[V:2] B2c3BAG | 
[V:3] z8 | 
[V:4] z8 | 
[V:1] G2^F2G4 | 
[V:2] A4G4 | 
[V:3] z8 | 
[V:4] z8 | 
[V:1] z2c4B2 | 
[V:2] c4G4 | 
[V:3] z8 | 
[V:4] z8 | 
[V:1] A2c4BA | 
[V:2] A6GF | 
[V:3] z8 | 
[V:4] z8 | 
[V:1] G4A4- | 
[V:2] E4F4 | 
[V:3] z8 | 
[V:4] z8 | 
[V:1] A2G2E4 | 
[V:2] D4G4 | 
[V:3] z8 | 
[V:4] z8 | 
[V:1] F4E4 | 
[V:2] A3GABc2- | 
[V:3] z8 | 
[V:4] z8 | 
[V:1] D4G4 | 
[V:2] c2B2c4 | 
[V:3] z8 | 
[V:4] z8 | 
[V:1] A2c3BA2- | 
[V:2] A3Bc2d2 | 
[V:3] z8 | 
[V:4] z8 | 
[V:1] A2^G2A4- | 
[V:2] B4A4- | 
[V:3] z8 | 
[V:4] z4D,4 | 
[V:1] A4z4 | 
[V:2] A4z4 | 
[V:3] z4A4 | 
[V:4] D,2D,2D,2D,2 | 
[V:1] z8 | 
[V:2] z8 | 
[V:3] A2A2A2A2 | 
[V:4] D,2C,B,,A,,2C,2- | 
[V:1] z8 | 
[V:2] z8 | 
[V:3] A4A2c2- | 
[V:4] C,B,,A,,G,,F,,4 | 
[V:1] z8 | 
[V:2] z8 | 
[V:3] cBAGF2A2- | 
[V:4] C,4D,2C,B,, | 
[V:1] z8 | 
[V:2] z8 | 
[V:3] AGFED2A2- | 
[V:4] A,,4B,,2A,,2 | 
[V:1] z8 | 
[V:2] z8 | 
[V:3] ABcde2d2- | 
[V:4] D,4C,2D,2 | 
[V:1] z8 | 
[V:2] z8 | 
[V:3] d2^c2d4 | 
[V:4] E,4D,4 | 
[V:1] E3FG2A2- | 
[V:2] z8 | 
[V:3] c4B2A2 | 
[V:4] C,3D,E,2A,,2 | 
[V:1] A2G2A3B | 
[V:2] z8 | 
[V:3] B4A2c2- | 
[V:4] E,4A,,4- | 
[V:1] c2d2B4 | 
[V:2] z8 | 
[V:3] c2BA^G4 | 
[V:4] A,,4z4 | 
[V:1] A8- | 
[V:2] c3de2f2- | 
[V:3] A8 | 
[V:4] A,,3B,,C,2D,2- | 
[V:1] A4z4 | 
[V:2] f2e2d2cB | 
[V:3] A4z4 | 
[V:4] D,2C,2D,3E, | 
[V:1] z8 | 
[V:2] A2d4^c2 | 
[V:3] z4e4 | 
[V:4] F,2G,2E,4 | 
[V:1] z4A4 | 
[V:2] d4z4 | 
[V:3] f6ed | 
[V:4] D,4z4 | 
[V:1] c4B2A2- | 
[V:2] z8 | 
[V:3] e4d2c2- | 
[V:4] z8 | 
[V:1] A2G4^F2 | 
[V:2] z8 | 
[V:3] cBAGA4 | 
[V:4] z8 | 
[V:1] G4z4 | 
[V:2] z2d2B2c2 | 
[V:3] G4z4 | 
[V:4] D,4E,4 | 
[V:1] z8 | 
[V:2] d2e4d2- | 
[V:3] z8 | 
[V:4] D,2G,4F,2 | 
[V:1] z8 | 
[V:2] d2c4B2 | 
[V:3] z8 | 
[V:4] E,2F,2D,4 | 
[V:1] z4A4 | 
[V:2] c4A4 | 
[V:3] z4c4 | 
[V:4] C,4F,4- | 
[V:1] A6A2 | 
[V:2] z2A2F2f2- | 
[V:3] c6c2 | 
[V:4] F,2F,2F,4 | 
[V:1] G4F4 | 
[V:2] f2e2d2c2 | 
[V:3] c3BAGA2- | 
[V:4] C,4F,4 | 
[V:1] E6DC | 
[V:2] c4A4- | 
[V:3] A2G2F4 | 
[V:4] C,4D,4- | 
[V:1] D4E4 |]  
[V:2] A4A4 |]  
[V:3] F4E4 |]  
[V:4] D,4A,,4 |]  



